Resources/LUT_cinematic_1.cube
#Created by: Affinity Photo (Serif Europe Ltd.)
TITLE "Cinematic LUT"
#LUT size
LUT_3D_SIZE 32
#data domain
DOMAIN_MIN 0.0 0.0 0.0
DOMAIN_MAX 1.0 1.0 1.0
#LUT data points
-0.042401 0.036819 0.036819
-0.007745 0.036819 0.036819
0.053234 0.036819 0.036819
0.074809 0.036819 0.036819
0.097520 0.036819 0.036819
0.122086 0.036819 0.036819
0.149198 0.036819 0.036819
0.179132 0.036819 0.036819
0.211551 0.036819 0.036819
0.246082 0.036819 0.036819
0.282364 0.036819 0.036819
0.320045 0.036819 0.036819
0.358779 0.036819 0.036819
0.398223 0.036819 0.036819
0.438035 0.036819 0.036819
0.477869 0.036819 0.036819
0.517375 0.036819 0.036819
0.556198 0.036819 0.036819
0.593971 0.036819 0.036819
0.630320 0.036819 0.036819
0.664857 0.036819 0.036819
0.697211 0.036819 0.036819
0.727357 0.036819 0.036819
0.755500 0.036819 0.036819
0.781852 0.036819 0.036819
0.806631 0.036819 0.036819
0.830058 0.036819 0.036819
0.852361 0.036819 0.036819
0.873778 0.036819 0.036819
0.894552 0.036819 0.036819
0.914938 0.036819 0.036819
0.935199 0.036819 0.036819
-0.040069 0.064137 0.036819
-0.005827 0.064547 0.036819
0.054198 0.064942 0.036819
0.075603 0.065324 0.036819
0.098170 0.065693 0.036819
0.122603 0.066049 0.036819
0.149580 0.066394 0.036819
0.179364 0.066728 0.036819
0.211626 0.067051 0.036819
0.246002 0.067363 0.036819
0.282138 0.067667 0.036819
0.319687 0.067961 0.036819
0.358308 0.068246 0.036819
0.397660 0.068523 0.036819
0.437403 0.068792 0.036819
0.477190 0.069053 0.036819
0.516673 0.069307 0.036819
0.555494 0.069554 0.036819
0.593287 0.069794 0.036819
0.629673 0.070028 0.036819
0.664264 0.070255 0.036819
0.696682 0.070477 0.036819
0.726893 0.070693 0.036819
0.755099 0.070903 0.036819
0.781511 0.071108 0.036819
0.806347 0.071308 0.036819
0.829827 0.071502 0.036819
0.852181 0.071692 0.036819
0.873644 0.071878 0.036819
0.894464 0.072059 0.036819
0.914893 0.072236 0.036819
0.935199 0.072409 0.036819
-0.037902 0.088528 0.036819
-0.004043 0.089065 0.036819
0.055098 0.089584 0.036819
0.076345 0.090086 0.036819
0.098779 0.090572 0.036819
0.123088 0.091043 0.036819
0.149938 0.091499 0.036819
0.179582 0.091941 0.036819
0.211697 0.092370 0.036819
0.245927 0.092787 0.036819
0.281925 0.093191 0.036819
0.319351 0.093584 0.036819
0.357865 0.093965 0.036819
0.397130 0.094336 0.036819
0.436806 0.094697 0.036819
0.476549 0.095048 0.036819
0.516009 0.095390 0.036819
0.554828 0.095722 0.036819
0.592638 0.096046 0.036819
0.629060 0.096362 0.036819
0.663700 0.096670 0.036819
0.696179 0.096969 0.036819
0.726451 0.097262 0.036819
0.754717 0.097547 0.036819
0.781187 0.097826 0.036819
0.806076 0.098098 0.036819
0.829607 0.098363 0.036819
0.852008 0.098623 0.036819
0.873517 0.098876 0.036819
0.894379 0.099123 0.036819
0.914851 0.099365 0.036819
0.935199 0.099602 0.036819
-0.035883 0.114327 0.036819
-0.002379 0.114963 0.036819
0.055939 0.115580 0.036819
0.077041 0.116177 0.036819
0.099350 0.116757 0.036819
0.123543 0.117319 0.036819
0.150274 0.117865 0.036819
0.179786 0.118395 0.036819
0.211763 0.118910 0.036819
0.245856 0.119410 0.036819
0.281725 0.119897 0.036819
0.319033 0.120371 0.036819
0.357446 0.120831 0.036819
0.396629 0.121280 0.036819
0.436242 0.121716 0.036819
0.475943 0.122142 0.036819
0.515381 0.122556 0.036819
0.554197 0.122961 0.036819
0.592023 0.123355 0.036819
0.628477 0.123739 0.036819
0.663165 0.124114 0.036819
0.695701 0.124480 0.036819
0.726031 0.124838 0.036819
0.754353 0.125187 0.036819
0.780878 0.125528 0.036819
0.805818 0.125861 0.036819
0.829397 0.126187 0.036819
0.851844 0.126505 0.036819
0.873396 0.126816 0.036819
0.894299 0.127121 0.036819
0.914810 0.127419 0.036819
0.935199 0.127710 0.036819
-0.033997 0.142590 0.036819
-0.000823 0.143322 0.036819
0.056728 0.144031 0.036819
0.077694 0.144720 0.036819
0.099887 0.145390 0.036819
0.123970 0.146040 0.036819
0.150590 0.146671 0.036819
0.179979 0.147286 0.036819
0.211825 0.147883 0.036819
0.245789 0.148464 0.036819
0.281536 0.149030 0.036819
0.318734 0.149581 0.036819
0.357051 0.150118 0.036819
0.396155 0.150640 0.036819
0.435708 0.151150 0.036819
0.475368 0.151647 0.036819
0.514785 0.152131 0.036819
0.553599 0.152604 0.036819
0.591439 0.153065 0.036819
0.627924 0.153515 0.036819
0.662656 0.153954 0.036819
0.695246 0.154383 0.036819
0.725631 0.154803 0.036819
0.754007 0.155213 0.036819
0.780583 0.155613 0.036819
0.805572 0.156005 0.036819
0.829198 0.156387 0.036819
0.851687 0.156762 0.036819
0.873280 0.157128 0.036819
0.894222 0.157487 0.036819
0.914772 0.157838 0.036819
0.935199 0.158182 0.036819
-0.032232 0.173879 0.036819
0.037210 0.174689 0.036819
0.057468 0.175476 0.036819
0.078308 0.176239 0.036819
0.100392 0.176981 0.036819
0.124374 0.177702 0.036819
0.150889 0.178403 0.036819
0.180161 0.179085 0.036819
0.211884 0.179749 0.036819
0.245726 0.180394 0.036819
0.281358 0.181023 0.036819
0.318451 0.181635 0.036819
0.356677 0.182232 0.036819
0.395706 0.182813 0.036819
0.435202 0.183380 0.036819
0.474823 0.183933 0.036819
0.514219 0.184473 0.036819
0.553030 0.184999 0.036819
0.590884 0.185513 0.036819
0.627397 0.186014 0.036819
0.662171 0.186504 0.036819
0.694812 0.186983 0.036819
0.725249 0.187451 0.036819
0.753676 0.187908 0.036819
0.780301 0.188355 0.036819
0.805337 0.188792 0.036819
0.829006 0.189220 0.036819
0.851537 0.189638 0.036819
0.873169 0.190047 0.036819
0.894148 0.190448 0.036819
0.914735 0.190840 0.036819
1.000000 0.191225 0.036819
-0.030576 0.207846 0.036819
0.038054 0.208708 0.036819
0.058165 0.209546 0.036819
0.078887 0.210359 0.036819
0.100869 0.211150 0.036819
0.124754 0.211919 0.036819
0.151171 0.212667 0.036819
0.180332 0.213395 0.036819
0.211940 0.214103 0.036819
0.245667 0.214793 0.036819
0.281189 0.215465 0.036819
0.318183 0.216120 0.036819
0.356323 0.216758 0.036819
0.395281 0.217380 0.036819
0.434722 0.217987 0.036819
0.474306 0.218579 0.036819
0.513681 0.219156 0.036819
0.552488 0.219720 0.036819
0.590355 0.220271 0.036819
0.626894 0.220808 0.036819
0.661708 0.221334 0.036819
0.694398 0.221847 0.036819
0.724885 0.222349 0.036819
0.753361 0.222840 0.036819
0.780032 0.223320 0.036819
0.805113 0.223789 0.036819
0.828824 0.224249 0.036819
0.851394 0.224698 0.036819
0.873062 0.225138 0.036819
0.894078 0.225569 0.036819
0.914699 0.225991 0.036819
1.000000 0.226404 0.036819
-0.029020 0.243995 0.036819
0.038848 0.244887 0.036819
0.058822 0.245754 0.036819
0.079434 0.246596 0.036819
0.101320 0.247415 0.036819
0.125114 0.248212 0.036819
0.151437 0.248987 0.036819
0.180494 0.249742 0.036819
0.211993 0.250477 0.036819
0.245611 0.251193 0.036819
0.281029 0.251891 0.036819
0.317929 0.252571 0.036819
0.355987 0.253234 0.036819
0.394877 0.253881 0.036819
0.434266 0.254512 0.036819
0.473813 0.255127 0.036819
0.513169 0.255729 0.036819
0.551972 0.256316 0.036819
0.589850 0.256889 0.036819
0.626415 0.257450 0.036819
0.661266 0.257997 0.036819
0.694002 0.258532 0.036819
0.724536 0.259056 0.036819
0.753058 0.259568 0.036819
0.779775 0.260069 0.036819
0.804898 0.260559 0.036819
0.828649 0.261038 0.036819
0.851257 0.261508 0.036819
0.872961 0.261968 0.036819
0.894010 0.262418 0.036819
0.914665 0.262859 0.036819
0.935199 0.263291 0.036819
-0.027555 0.281855 0.036819
0.039596 0.282757 0.036819
0.059443 0.283634 0.036819
0.079950 0.284487 0.036819
0.101746 0.285316 0.036819
0.125455 0.286124 0.036819
0.151690 0.286910 0.036819
0.180648 0.287675 0.036819
0.212043 0.288421 0.036819
0.245557 0.289147 0.036819
0.280877 0.289856 0.036819
0.317687 0.290547 0.036819
0.355667 0.291221 0.036819
0.394492 0.291878 0.036819
0.433831 0.292520 0.036819
0.473344 0.293147 0.036819
0.512681 0.293759 0.036819
0.551480 0.294356 0.036819
0.589369 0.294941 0.036819
0.625957 0.295511 0.036819
0.660843 0.296070 0.036819
0.693624 0.296615 0.036819
0.724203 0.297149 0.036819
0.752769 0.297672 0.036819
0.779528 0.298183 0.036819
0.804692 0.298683 0.036819
0.828481 0.299173 0.036819
0.851125 0.299652 0.036819
0.872863 0.300122 0.036819
0.893945 0.300582 0.036819
0.914633 0.301033 0.036819
0.935199 0.301475 0.036819
-0.026172 0.320977 0.036819
0.040302 0.321873 0.036819
0.060030 0.322744 0.036819
0.080440 0.323592 0.036819
0.102151 0.324416 0.036819
0.125779 0.325220 0.036819
0.151929 0.326002 0.036819
0.180794 0.326764 0.036819
0.212090 0.327507 0.036819
0.245506 0.328231 0.036819
0.280733 0.328938 0.036819
0.317457 0.329627 0.036819
0.355363 0.330299 0.036819
0.394126 0.330956 0.036819
0.433417 0.331597 0.036819
0.472897 0.332223 0.036819
0.512215 0.332834 0.036819
0.551011 0.333432 0.036819
0.588909 0.334016 0.036819
0.625520 0.334588 0.036819
0.660439 0.335146 0.036819
0.693262 0.335693 0.036819
0.723884 0.336227 0.036819
0.752492 0.336751 0.036819
0.779292 0.337263 0.036819
0.804495 0.337764 0.036819
0.828320 0.338255 0.036819
0.850999 0.338737 0.036819
0.872770 0.339208 0.036819
0.893883 0.339670 0.036819
0.914601 0.340122 0.036819
0.935199 0.340566 0.036819
-0.024866 0.360933 0.036819
0.040971 0.361808 0.036819
0.060586 0.362660 0.036819
0.080904 0.363490 0.036819
0.102535 0.364297 0.036819
0.126086 0.365084 0.036819
0.152157 0.365851 0.036819
0.180933 0.366598 0.036819
0.212135 0.367327 0.036819
0.245458 0.368038 0.036819
0.280596 0.368731 0.036819
0.317239 0.369408 0.036819
0.355073 0.370069 0.036819
0.393777 0.370714 0.036819
0.433022 0.371344 0.036819
0.472470 0.371960 0.036819
0.511770 0.372562 0.036819
0.550562 0.373150 0.036819
0.588469 0.373726 0.036819
0.625101 0.374288 0.036819
0.660052 0.374839 0.036819
0.692914 0.375378 0.036819
0.723577 0.375905 0.036819
0.752227 0.376421 0.036819
0.779065 0.376926 0.036819
0.804305 0.377421 0.036819
0.828166 0.377906 0.036819
0.850877 0.378381 0.036819
0.872680 0.378847 0.036819
0.893823 0.379303 0.036819
0.914571 0.379751 0.036819
0.935199 0.380190 0.036819
-0.023630 0.401312 0.036819
0.041603 0.402157 0.036819
0.061113 0.402979 0.036819
0.081345 0.403779 0.036819
0.102899 0.404559 0.036819
0.126378 0.405320 0.036819
0.152373 0.406061 0.036819
0.181065 0.406783 0.036819
0.212178 0.407489 0.036819
0.245412 0.408177 0.036819
0.280465 0.408848 0.036819
0.317031 0.409504 0.036819
0.354797 0.410144 0.036819
0.393444 0.410770 0.036819
0.432645 0.411381 0.036819
0.472062 0.411979 0.036819
0.511345 0.412563 0.036819
0.550132 0.413134 0.036819
0.588047 0.413693 0.036819
0.624700 0.414240 0.036819
0.659681 0.414775 0.036819
0.692582 0.415299 0.036819
0.723284 0.415812 0.036819
0.751972 0.416314 0.036819
0.778848 0.416806 0.036819
0.804123 0.417287 0.036819
0.828018 0.417760 0.036819
0.850761 0.418222 0.036819
0.872593 0.418676 0.036819
0.893766 0.419121 0.036819
0.914542 0.419557 0.036819
0.935199 0.419322 0.036819
-0.022459 0.441724 0.036819
0.042204 0.442528 0.036819
0.061614 0.443311 0.036819
0.081765 0.444075 0.036819
0.103247 0.444819 0.036819
0.126656 0.445544 0.036819
0.152579 0.446252 0.036819
0.181191 0.446942 0.036819
0.212219 0.447616 0.036819
0.245368 0.448274 0.036819
0.280340 0.448916 0.036819
0.316832 0.449543 0.036819
0.354533 0.450156 0.036819
0.393126 0.450755 0.036819
0.432285 0.451341 0.036819
0.471672 0.451913 0.036819
0.510938 0.452473 0.036819
0.549721 0.453021 0.036819
0.587644 0.453557 0.036819
0.624315 0.454082 0.036819
0.659325 0.454595 0.036819
0.692262 0.455098 0.036819
0.723002 0.455591 0.036819
0.751727 0.456073 0.036819
0.778639 0.456546 0.036819
0.803948 0.457009 0.036819
0.827875 0.457463 0.036819
0.850649 0.457909 0.036819
0.872510 0.458345 0.036819
0.893628 0.458169 0.036819
0.914427 0.457945 0.036819
0.935199 0.457717 0.036819
-0.021347 0.481792 0.036819
0.042774 0.482549 0.036819
0.062091 0.483287 0.036819
0.082164 0.484006 0.036819
0.103577 0.484708 0.036819
0.126921 0.485392 0.036819
0.152775 0.486059 0.036819
0.181310 0.486711 0.036819
0.212258 0.487347 0.036819
0.245326 0.487969 0.036819
0.280221 0.488576 0.036819
0.316642 0.489169 0.036819
0.354281 0.489749 0.036819
0.392822 0.490316 0.036819
0.431940 0.490870 0.036819
0.471298 0.491412 0.036819
0.510548 0.491942 0.036819
0.549326 0.492462 0.036819
0.587257 0.492970 0.036819
0.623946 0.493467 0.036819
0.658984 0.493954 0.036819
0.691955 0.494431 0.036819
0.722731 0.494899 0.036819
0.751491 0.495357 0.036819
0.778437 0.495806 0.036819
0.803780 0.496246 0.036819
0.827738 0.496677 0.036819
0.850380 0.496561 0.036819
0.872174 0.496381 0.036819
0.893393 0.496197 0.036819
0.914305 0.496010 0.036819
1.000000 0.495819 0.036819
-0.020290 0.521155 0.036819
0.043317 0.521860 0.036819
0.062545 0.522547 0.036819
0.082544 0.523217 0.036819
0.103893 0.523871 0.036819
0.127174 0.524509 0.036819
0.152963 0.525132 0.036819
0.181425 0.525740 0.036819
0.212295 0.526334 0.036819
0.245286 0.526914 0.036819
0.280107 0.527481 0.036819
0.316460 0.528036 0.036819
0.354039 0.528578 0.036819
0.392531 0.529108 0.036819
0.431610 0.529626 0.036819
0.470940 0.530134 0.036819
0.510174 0.530631 0.036819
0.548948 0.531117 0.036819
0.586885 0.531593 0.036819
0.623591 0.532059 0.036819
0.658655 0.532516 0.036819
0.691660 0.532963 0.036819
0.722470 0.533402 0.036819
0.751265 0.533831 0.036819
0.778244 0.534253 0.036819
0.803375 0.534195 0.036819
0.827173 0.534061 0.036819
0.849907 0.533925 0.036819
0.871815 0.533785 0.036819
0.893148 0.533643 0.036819
0.914178 0.533499 0.036819
1.000000 0.533351 0.036819
-0.019285 0.559466 0.036819
0.043834 0.560114 0.036819
0.062977 0.560747 0.036819
0.082908 0.561364 0.036819
0.104194 0.561966 0.036819
0.127415 0.562554 0.036819
0.153142 0.563129 0.036819
0.181534 0.563690 0.036819
0.212331 0.564238 0.036819
0.245248 0.564774 0.036819
0.279998 0.565297 0.036819
0.316286 0.565810 0.036819
0.353808 0.566311 0.036819
0.392252 0.566801 0.036819
0.431293 0.567280 0.036819
0.470597 0.567750 0.036819
0.509815 0.568210 0.036819
0.548585 0.568660 0.036819
0.586528 0.569100 0.036819
0.623250 0.569532 0.036819
0.658339 0.569955 0.036819
0.691376 0.570370 0.036819
0.722219 0.570777 0.036819
0.750714 0.570773 0.036819
0.777429 0.570686 0.036819
0.802641 0.570598 0.036819
0.826562 0.570508 0.036819
0.849416 0.570416 0.036819
0.871441 0.570323 0.036819
0.892893 0.570227 0.036819
0.914046 0.570129 0.036819
1.000000 0.570030 0.036819
-0.018327 0.596388 0.036819
0.044327 0.596978 0.036819
0.063391 0.597554 0.036819
0.083255 0.598115 0.036819
0.104482 0.598664 0.036819
0.127646 0.599199 0.036819
0.153314 0.599723 0.036819
0.181639 0.600234 0.036819
0.212365 0.600734 0.036819
0.245212 0.601222 0.036819
0.279894 0.601700 0.036819
0.316120 0.602168 0.036819
0.353587 0.602625 0.036819
0.391984 0.603073 0.036819
0.430989 0.603511 0.036819
0.470267 0.603940 0.036819
0.509470 0.604360 0.036819
0.548236 0.604772 0.036819
0.586185 0.605175 0.036819
0.622922 0.605570 0.036819
0.658035 0.605958 0.036819
0.690675 0.606003 0.036819
0.721129 0.605963 0.036819
0.749685 0.605923 0.036819
0.776534 0.605881 0.036819
0.801877 0.605839 0.036819
0.825925 0.605796 0.036819
0.848904 0.605752 0.036819
0.871052 0.605707 0.036819
0.892627 0.605661 0.036819
0.913909 0.605614 0.036819
0.935199 0.605566 0.036819
-0.017414 0.631599 0.036819
0.044797 0.632128 0.036819
0.063785 0.632645 0.036819
0.083587 0.633149 0.036819
0.104758 0.633642 0.036819
0.127868 0.634124 0.036819
0.153478 0.634595 0.036819
0.181739 0.635055 0.036819
0.212397 0.635505 0.036819
0.245176 0.635945 0.036819
0.279794 0.636375 0.036819
0.315960 0.636796 0.036819
0.353374 0.637209 0.036819
0.391727 0.637612 0.036819
0.430697 0.638007 0.036819
0.469951 0.638394 0.036819
0.509139 0.638774 0.036819
0.547900 0.639145 0.036819
0.585854 0.639509 0.036819
0.622092 0.639597 0.036819
0.656655 0.639601 0.036819
0.689315 0.639606 0.036819
0.719913 0.639611 0.036819
0.748611 0.639616 0.036819
0.775601 0.639622 0.036819
0.801080 0.639627 0.036819
0.825261 0.639632 0.036819
0.848369 0.639638 0.036819
0.870646 0.639643 0.036819
0.892350 0.639649 0.036819
0.913765 0.639655 0.036819
0.935199 0.639661 0.036819
-0.016542 0.664781 0.036819
0.045246 0.665250 0.036819
0.064163 0.665707 0.036819
0.083905 0.666155 0.036819
0.105022 0.666591 0.036819
0.128080 0.667018 0.036819
0.153635 0.667436 0.036819
0.181835 0.667844 0.036819
0.212429 0.668243 0.036819
0.245143 0.668633 0.036819
0.279698 0.669016 0.036819
0.315807 0.669390 0.036819
0.353170 0.669756 0.036819
0.391480 0.670115 0.036819
0.430417 0.670466 0.036819
0.469646 0.670810 0.036819
0.508820 0.671147 0.036819
0.547013 0.671269 0.036819
0.584261 0.671315 0.036819
0.620414 0.671361 0.036819
0.655092 0.671409 0.036819
0.687896 0.671458 0.036819
0.718644 0.671507 0.036819
0.747491 0.671558 0.036819
0.774626 0.671610 0.036819
0.800248 0.671662 0.036819
0.824568 0.671716 0.036819
0.847812 0.671771 0.036819
0.870222 0.671828 0.036819
0.892061 0.671885 0.036819
0.913616 0.671944 0.036819
0.935199 0.672004 0.036819
-0.015708 0.695656 0.036819
0.045676 0.696066 0.036819
0.064525 0.696466 0.036819
0.084209 0.696857 0.036819
0.105275 0.697239 0.036819
0.128283 0.697613 0.036819
0.153786 0.697979 0.036819
0.181927 0.698337 0.036819
0.212459 0.698687 0.036819
0.245111 0.699030 0.036819
0.279606 0.699365 0.036819
0.315659 0.699694 0.036819
0.352974 0.700015 0.036819
0.391243 0.700331 0.036819
0.430147 0.700640 0.036819
0.468781 0.700788 0.036819
0.507136 0.700870 0.036819
0.545131 0.700954 0.036819
0.582427 0.701039 0.036819
0.618664 0.701126 0.036819
0.653461 0.701215 0.036819
0.686414 0.701306 0.036819
0.717318 0.701399 0.036819
0.746320 0.701493 0.036819
0.773608 0.701590 0.036819
0.799379 0.701689 0.036819
0.823844 0.701789 0.036819
0.847229 0.701892 0.036819
0.869779 0.701998 0.036819
0.891759 0.702105 0.036819
0.913459 0.702215 0.036819
0.935199 0.702328 0.036819
-0.014910 0.724248 0.036819
0.046088 0.724606 0.036819
0.064872 0.724956 0.036819
0.084501 0.725299 0.036819
0.105518 0.725633 0.036819
0.128478 0.725961 0.036819
0.153931 0.726281 0.036819
0.182016 0.726595 0.036819
0.212487 0.726902 0.036819
0.245080 0.727202 0.036819
0.279518 0.727497 0.036819
0.315518 0.727785 0.036819
0.352786 0.728068 0.036819
0.390472 0.728236 0.036819
0.428499 0.728350 0.036819
0.466832 0.728467 0.036819
0.505164 0.728586 0.036819
0.543171 0.728708 0.036819
0.580516 0.728831 0.036819
0.616839 0.728958 0.036819
0.651757 0.729087 0.036819
0.684864 0.729218 0.036819
0.715932 0.729353 0.036819
0.745097 0.729490 0.036819
0.772544 0.729630 0.036819
0.798470 0.729773 0.036819
0.823087 0.729920 0.036819
0.846620 0.730069 0.036819
0.869316 0.730222 0.036819
0.891443 0.730379 0.036819
0.913296 0.730539 0.036819
0.935199 0.730703 0.036819
-0.014146 0.750786 0.036819
0.046483 0.751099 0.036819
0.065204 0.751405 0.036819
0.084781 0.751705 0.036819
0.105751 0.751998 0.036819
0.128665 0.752285 0.036819
0.154070 0.752566 0.036819
0.182100 0.752841 0.036819
0.212515 0.753111 0.036819
0.245050 0.753375 0.036819
0.279433 0.753633 0.036819
0.314900 0.753816 0.036819
0.351294 0.753959 0.036819
0.388599 0.754105 0.036819
0.426533 0.754254 0.036819
0.464806 0.754406 0.036819
0.503111 0.754561 0.036819
0.541129 0.754719 0.036819
0.578522 0.754880 0.036819
0.614932 0.755044 0.036819
0.649976 0.755212 0.036819
0.683243 0.755384 0.036819
0.714481 0.755559 0.036819
0.743815 0.755738 0.036819
0.771429 0.755921 0.036819
0.797519 0.756108 0.036819
0.822294 0.756299 0.036819
0.845982 0.756494 0.036819
0.868831 0.756694 0.036819
0.891112 0.756898 0.036819
0.913124 0.757107 0.036819
0.935199 0.757321 0.036819
-0.013414 0.775491 0.036819
0.046861 0.775765 0.036819
0.065523 0.776034 0.036819
0.085051 0.776297 0.036819
0.105975 0.776554 0.036819
0.128845 0.776806 0.036819
0.154203 0.777053 0.036819
0.182182 0.777295 0.036819
0.212542 0.777532 0.036819
0.244624 0.777725 0.036819
0.278194 0.777894 0.036819
0.313231 0.778066 0.036819
0.349473 0.778241 0.036819
0.386651 0.778420 0.036819
0.424488 0.778603 0.036819
0.462696 0.778789 0.036819
0.500972 0.778979 0.036819
0.538999 0.779173 0.036819
0.576441 0.779371 0.036819
0.612940 0.779573 0.036819
0.648112 0.779779 0.036819
0.681546 0.779990 0.036819
0.712961 0.780206 0.036819
0.742473 0.780426 0.036819
0.770261 0.780651 0.036819
0.796522 0.780881 0.036819
0.821464 0.781116 0.036819
0.845314 0.781357 0.036819
0.868323 0.781603 0.036819
0.890765 0.781855 0.036819
0.912944 0.782113 0.036819
0.935199 0.782377 0.036819
-0.012712 0.798580 0.036819
0.047225 0.798821 0.036819
0.065830 0.799057 0.036819
0.085309 0.799288 0.036819
0.106191 0.799515 0.036819
0.129019 0.799737 0.036819
0.154332 0.799954 0.036819
0.181961 0.800154 0.036819
0.211622 0.800346 0.036819
0.243264 0.800542 0.036819
0.276639 0.800742 0.036819
0.311497 0.800945 0.036819
0.347581 0.801153 0.036819
0.384626 0.801365 0.036819
0.422359 0.801581 0.036819
0.460497 0.801801 0.036819
0.498741 0.802027 0.036819
0.536775 0.802256 0.036819
0.574266 0.802491 0.036819
0.610856 0.802731 0.036819
0.646160 0.802976 0.036819
0.679765 0.803226 0.036819
0.711367 0.803482 0.036819
0.741064 0.803743 0.036819
0.769036 0.804011 0.036819
0.795476 0.804285 0.036819
0.820592 0.804564 0.036819
0.844613 0.804851 0.036819
0.867791 0.805144 0.036819
0.890402 0.805444 0.036819
0.912756 0.805752 0.036819
0.935199 0.806067 0.036819
-0.012037 0.820261 0.036819
0.047574 0.820474 0.036819
0.066125 0.820682 0.036819
0.085559 0.820886 0.036819
0.106398 0.821086 0.036819
0.128983 0.821290 0.036819
0.153754 0.821504 0.036819
0.180976 0.821722 0.036819
0.210421 0.821944 0.036819
0.241852 0.822170 0.036819
0.275025 0.822401 0.036819
0.309696 0.822637 0.036819
0.345613 0.822877 0.036819
0.382518 0.823123 0.036819
0.420142 0.823373 0.036819
0.458205 0.823628 0.036819
0.496412 0.823889 0.036819
0.534452 0.824156 0.036819
0.571991 0.824428 0.036819
0.608673 0.824706 0.036819
0.644114 0.824991 0.036819
0.677896 0.825282 0.036819
0.709693 0.825579 0.036819
0.739585 0.825883 0.036819
0.767749 0.826194 0.036819
0.794377 0.826512 0.036819
0.819676 0.826838 0.036819
0.843877 0.827172 0.036819
0.867231 0.827514 0.036819
0.890020 0.827864 0.036819
0.912558 0.828223 0.036819
0.935199 0.828590 0.036819
-0.011389 0.840739 0.036819
0.047910 0.840927 0.036819
0.066409 0.841111 0.036819
0.085670 0.841318 0.036819
0.106127 0.841552 0.036819
0.128388 0.841791 0.036819
0.152952 0.842034 0.036819
0.179954 0.842282 0.036819
0.209176 0.842535 0.036819
0.240385 0.842793 0.036819
0.273348 0.843057 0.036819
0.307823 0.843326 0.036819
0.343565 0.843600 0.036819
0.380322 0.843880 0.036819
0.417830 0.844166 0.036819
0.455813 0.844458 0.036819
0.493980 0.844757 0.036819
0.532022 0.845062 0.036819
0.569609 0.845373 0.036819
0.606385 0.845692 0.036819
0.641965 0.846018 0.036819
0.675932 0.846351 0.036819
0.707933 0.846692 0.036819
0.738030 0.847041 0.036819
0.766395 0.847398 0.036819
0.793221 0.847763 0.036819
0.818713 0.848138 0.036819
0.843102 0.848522 0.036819
0.866642 0.848915 0.036819
0.889618 0.849318 0.036819
0.912349 0.849731 0.036819
0.935199 0.850155 0.036819
-0.010765 0.860208 0.036819
0.048156 0.860415 0.036819
0.066377 0.860670 0.036819
0.085394 0.860929 0.036819
0.105694 0.861193 0.036819
0.127771 0.861463 0.036819
0.152120 0.861738 0.036819
0.178893 0.862018 0.036819
0.207882 0.862305 0.036819
0.238862 0.862597 0.036819
0.271603 0.862895 0.036819
0.305873 0.863199 0.036819
0.341432 0.863510 0.036819
0.378033 0.863827 0.036819
0.415417 0.864151 0.036819
0.453314 0.864483 0.036819
0.491436 0.864821 0.036819
0.529478 0.865167 0.036819
0.567112 0.865521 0.036819
0.603984 0.865884 0.036819
0.639708 0.866254 0.036819
0.673864 0.866633 0.036819
0.706081 0.867021 0.036819
0.736392 0.867419 0.036819
0.764970 0.867826 0.036819
0.792003 0.868243 0.036819
0.817699 0.868670 0.036819
0.842287 0.869108 0.036819
0.866022 0.869558 0.036819
0.889195 0.870019 0.036819
0.912130 0.870492 0.036819
0.935199 0.870978 0.036819
-0.010451 0.879035 0.036819
0.048148 0.879315 0.036819
0.066236 0.879601 0.036819
0.085108 0.879893 0.036819
0.105244 0.880190 0.036819
0.127130 0.880493 0.036819
0.151256 0.880803 0.036819
0.177792 0.881118 0.036819
0.206538 0.881441 0.036819
0.237278 0.881770 0.036819
0.269788 0.882106 0.036819
0.303842 0.882449 0.036819
0.339208 0.882800 0.036819
0.375644 0.883158 0.036819
0.412897 0.883525 0.036819
0.450701 0.883899 0.036819
0.488774 0.884283 0.036819
