Resources/LUT_cinematic_1.cube
#Created by: Affinity Photo (Serif Europe Ltd.)
TITLE "Cinematic LUT"
#LUT size
LUT_3D_SIZE 8
#data domain
#LUT data points
DOMAIN_MIN 0.000000 0.000000 0.000000
DOMAIN_MAX 0.903226 0.903226 0.903226
-0.042401 0.036819 0.036819
0.097520 0.036819 0.036819
0.211551 0.036819 0.036819
0.358779 0.036819 0.036819
0.517375 0.036819 0.036819
0.664857 0.036819 0.036819
0.781852 0.036819 0.036819
0.873778 0.036819 0.036819
-0.033997 0.142590 0.036819
0.099887 0.145390 0.036819
0.211825 0.147883 0.036819
0.357051 0.150118 0.036819
0.514785 0.152131 0.036819
0.662656 0.153954 0.036819
0.780583 0.155613 0.036819
0.873280 0.157128 0.036819
-0.027555 0.281855 0.036819
0.101746 0.285316 0.036819
0.212043 0.288421 0.036819
0.355667 0.291221 0.036819
0.512681 0.293759 0.036819
0.660843 0.296070 0.036819
0.779528 0.298183 0.036819
0.872863 0.300122 0.036819
-0.022459 0.441724 0.036819
0.103247 0.444819 0.036819
0.212219 0.447616 0.036819
0.354533 0.450156 0.036819
0.510938 0.452473 0.036819
0.659325 0.454595 0.036819
0.778639 0.456546 0.036819
0.872510 0.458345 0.036819
-0.018327 0.596388 0.036819
0.104482 0.598664 0.036819
0.212365 0.600734 0.036819
0.353587 0.602625 0.036819
0.509470 0.604360 0.036819
0.658035 0.605958 0.036819
0.776534 0.605881 0.036819
0.871052 0.605707 0.036819
-0.014910 0.724248 0.036819
0.105518 0.725633 0.036819
0.212487 0.726902 0.036819
0.352786 0.728068 0.036819
0.505164 0.728586 0.036819
0.651757 0.729087 0.036819
0.772544 0.729630 0.036819
0.869316 0.730222 0.036819
-0.012037 0.820261 0.036819
0.106398 0.821086 0.036819
0.210421 0.821944 0.036819
0.345613 0.822877 0.036819
0.496412 0.823889 0.036819
0.644114 0.824991 0.036819
0.767749 0.826194 0.036819
0.867231 0.827514 0.036819
-0.010240 0.897434 0.036819
0.104777 0.898730 0.036819
0.205141 0.900138 0.036819
0.336888 0.901671 0.036819
0.485984 0.903347 0.036819
0.634831 0.905188 0.036819
0.761879 0.907219 0.036819
0.864678 0.909472 0.036819
-0.040646 0.036819 0.144826
0.098009 0.036819 0.146664
0.211607 0.036819 0.148273
0.358425 0.036819 0.149692
0.516848 0.036819 0.150952
0.664411 0.036819 0.152080
0.781596 0.036819 0.153095
0.873678 0.036819 0.154013
-0.032670 0.143655 0.148222
0.100266 0.146337 0.149647
0.211870 0.148730 0.150913
0.356770 0.150880 0.152045
0.514360 0.152820 0.153063
0.662292 0.154580 0.153984
0.780371 0.156184 0.154820
0.873196 0.157652 0.155584
-0.026516 0.283170 0.150873
0.102050 0.286493 0.152009
0.212078 0.289480 0.153031
0.355439 0.292180 0.153954
0.512331 0.294631 0.154794
0.660540 0.296866 0.155560
0.779351 0.298913 0.156261
0.872793 0.300794 0.156907
-0.021624 0.442896 0.152998
0.103495 0.445877 0.153925
0.212248 0.448575 0.154767
0.354344 0.451030 0.155535
0.510646 0.453273 0.156239
0.659069 0.455330 0.156886
0.778488 0.457222 0.157483
0.872263 0.458065 0.157404
-0.017642 0.597248 0.154740
0.104689 0.599445 0.155511
0.212389 0.601447 0.156216
0.353428 0.603279 0.156865
0.509222 0.604961 0.157464
0.657042 0.605985 0.157447
0.775842 0.605819 0.156121
0.870750 0.605639 0.154689
-0.014338 0.724771 0.156194
0.105693 0.726111 0.156844
0.212508 0.727340 0.157444
0.351746 0.728289 0.157489
0.503641 0.728765 0.156167
0.650436 0.729281 0.154738
0.771718 0.729841 0.153191
0.868957 0.730453 0.151510
-0.011551 0.820572 0.157425
0.106234 0.821390 0.157532
0.209497 0.822278 0.156212
0.344094 0.823239 0.154788
0.494608 0.824282 0.153245
0.642522 0.825419 0.151569
0.766746 0.826664 0.149741
0.866795 0.828030 0.147741
-0.010076 0.897897 0.156258
0.104416 0.899233 0.154837
0.204062 0.900685 0.153299
0.335092 0.902268 0.151627
0.483815 0.904002 0.149805
0.632876 0.905909 0.147811
0.760636 0.908017 0.145620
0.864138 0.910360 0.143202
-0.038984 0.036819 0.277353
0.098474 0.036819 0.280044
0.211661 0.036819 0.282398
0.358087 0.036819 0.284474
0.516342 0.036819 0.286319
0.663983 0.036819 0.287969
0.781350 0.036819 0.289453
0.873581 0.036819 0.290795
-0.031405 0.144675 0.282325
0.100630 0.147245 0.284409
0.211912 0.149545 0.286261
0.356501 0.151614 0.287917
0.513951 0.153485 0.289406
0.661940 0.155185 0.290753
0.780167 0.156737 0.291976
0.873116 0.158159 0.293093
-0.025521 0.284431 0.286203
0.102342 0.287625 0.287864
0.212112 0.290501 0.289359
0.355219 0.293105 0.290710
0.511994 0.295474 0.291937
0.660247 0.297637 0.293057
0.779179 0.299621 0.294084
0.872725 0.301446 0.295027
-0.020821 0.444024 0.289311
0.103734 0.446897 0.290667
0.212276 0.449502 0.291898
0.354161 0.451876 0.293022
0.510362 0.454047 0.294051
0.658820 0.456041 0.294997
0.778341 0.457879 0.295870
0.871999 0.457733 0.294939
-0.016980 0.598078 0.291859
0.104889 0.600200 0.292986
0.212413 0.602137 0.294018
0.353273 0.603912 0.294966
0.508981 0.605544 0.295842
0.655895 0.605925 0.294994
0.775127 0.605755 0.293259
0.870439 0.605569 0.291377
-0.013783 0.725276 0.293985
0.105862 0.726574 0.294936
0.212528 0.727766 0.295813
0.350407 0.728459 0.295050
0.502070 0.728949 0.293319
0.649071 0.729481 0.291442
0.770862 0.730059 0.289399
0.868585 0.730692 0.287169
-0.011079 0.820873 0.295785
0.105916 0.821707 0.295105
0.208546 0.822621 0.293379
0.342528 0.823611 0.291507
0.492744 0.824688 0.289470
0.640870 0.825862 0.287246
0.765704 0.827149 0.284808
0.866342 0.828566 0.282124
-0.009908 0.898374 0.293439
0.104045 0.899751 0.291572
0.202950 0.901249 0.289541
0.333235 0.902885 0.287324
0.481566 0.904680 0.284893
0.630840 0.906657 0.282217
0.759338 0.908847 0.279257
0.863574 0.911286 0.275965
-0.037410 0.036819 0.429496
0.098917 0.036819 0.432324
0.211713 0.036819 0.434799
0.357763 0.036819 0.436983
0.515857 0.036819 0.438925
0.663571 0.036819 0.440662
0.781112 0.036819 0.442226
0.873488 0.036819 0.443641
-0.030198 0.145652 0.434722
0.100978 0.148118 0.436915
0.211953 0.150328 0.438864
0.356242 0.152321 0.440607
0.513557 0.154127 0.442176
0.661601 0.155771 0.443596
0.779970 0.157273 0.444886
0.873038 0.158651 0.446064
-0.024567 0.285642 0.438802
0.102623 0.288714 0.440552
0.212145 0.291486 0.442127
0.355006 0.293999 0.443551
0.511668 0.296289 0.444845
0.659963 0.298384 0.446026
0.779013 0.300307 0.447109
0.872659 0.302079 0.448104
-0.020047 0.445111 0.442077
0.103966 0.447881 0.443505
0.212304 0.450398 0.444804
0.353984 0.452694 0.445988
0.510087 0.454798 0.447074
0.658579 0.456732 0.448073
0.778088 0.458301 0.448806
0.871727 0.457390 0.447378
-0.016340 0.598879 0.444762
0.105083 0.600931 0.445951
0.212436 0.602806 0.447039
0.353123 0.604526 0.448041
0.508588 0.606026 0.448851
0.654711 0.605864 0.447427
0.774389 0.605689 0.445883
0.870118 0.605497 0.444203
-0.013245 0.725765 0.447005
0.106027 0.727023 0.448008
0.212508 0.728168 0.448897
0.349031 0.728634 0.447477
0.500451 0.729139 0.445937
0.647657 0.729687 0.444262
0.769976 0.730285 0.442433
0.868199 0.730938 0.440429
-0.010621 0.821165 0.448905
0.105589 0.822034 0.447526
0.207568 0.822975 0.445990
0.340913 0.823995 0.444320
0.490815 0.825106 0.442497
0.639155 0.826320 0.440498
0.764620 0.827653 0.438299
0.865870 0.829121 0.435865
-0.009735 0.898866 0.446043
0.103662 0.900285 0.444378
0.201804 0.901832 0.442560
0.331316 0.903524 0.440568
0.479233 0.905382 0.438376
0.628719 0.907434 0.435950
0.757983 0.909711 0.433254
0.862984 0.912252 0.430239
-0.035916 0.036819 0.579805
0.099340 0.036819 0.582226
0.211762 0.036819 0.584347
0.357453 0.036819 0.586220
0.515391 0.036819 0.587886
0.663174 0.036819 0.589377
0.780883 0.036819 0.590721
0.873398 0.036819 0.591936
-0.029045 0.146588 0.584281
0.101312 0.148956 0.586161
0.211992 0.151083 0.587833
0.355992 0.153004 0.589330
0.513177 0.154747 0.590678
0.661273 0.156337 0.591898
0.779779 0.157792 0.593007
0.872962 0.159128 0.594020
-0.023651 0.286806 0.587781
0.102893 0.289763 0.589283
0.212177 0.292435 0.590635
0.354801 0.294863 0.591859
0.511352 0.297079 0.592971
0.659688 0.299108 0.593987
0.778851 0.300974 0.594919
0.872595 0.302695 0.595776
-0.019302 0.446159 0.590592
0.104189 0.448831 0.591820
0.212330 0.451264 0.592936
0.353812 0.453486 0.593955
0.509821 0.455526 0.594889
0.658344 0.457403 0.595748
0.777444 0.457975 0.595813
0.871447 0.457037 0.594920
-0.015722 0.599653 0.592900
0.105271 0.601637 0.593922
0.212458 0.603453 0.594859
0.352977 0.605122 0.595721
0.507168 0.605968 0.595842
0.653489 0.605802 0.594951
0.773626 0.605620 0.593984
0.869787 0.605423 0.592929
-0.012723 0.726239 0.594829
0.106187 0.727458 0.595693
0.211642 0.728335 0.595870
0.347614 0.728815 0.594982
0.498779 0.729335 0.594018
0.646194 0.729900 0.592966
0.769057 0.730517 0.591814
0.867800 0.731194 0.590549
-0.010455 0.821476 0.595899
0.105252 0.822370 0.595013
0.206562 0.823339 0.594051
0.339247 0.824392 0.593002
0.488820 0.825539 0.591854
0.637374 0.826794 0.590593
0.763493 0.828174 0.589200
0.865380 0.829698 0.587654
-0.009556 0.899373 0.594084
0.103267 0.900837 0.593039
0.200621 0.902434 0.591895
0.329330 0.904184 0.590637
0.476811 0.906111 0.589249
0.626506 0.908241 0.587708
0.756565 0.910609 0.585988
0.862368 0.913259 0.584057
-0.034496 0.036819 0.708358
0.099744 0.036819 0.710049
0.211809 0.036819 0.711533
0.357156 0.036819 0.712844
0.514943 0.036819 0.714012
0.662792 0.036819 0.715059
0.780661 0.036819 0.716003
0.873311 0.036819 0.716858
-0.027943 0.147487 0.711486
0.101633 0.149761 0.712803
0.212029 0.151809 0.713975
0.355752 0.153662 0.715026
0.512811 0.155347 0.715973
0.660956 0.156885 0.716830
0.779594 0.158295 0.717611
0.872889 0.159591 0.718324
-0.022770 0.287926 0.713938
0.103154 0.290773 0.714993
0.212208 0.293352 0.715943
0.354603 0.295699 0.716803
0.511047 0.297843 0.717586
0.659421 0.299810 0.718302
0.778694 0.301621 0.718958
0.872532 0.303293 0.719562
-0.018583 0.447169 0.715913
0.104406 0.449749 0.716776
0.212356 0.452101 0.717561
0.353646 0.454254 0.718279
0.509563 0.456232 0.718937
0.658116 0.458055 0.719543
0.776780 0.457640 0.719441
0.871159 0.456674 0.719167
-0.015123 0.600402 0.717536
0.105453 0.602322 0.718256
0.212480 0.604081 0.718916
0.352836 0.605700 0.719524
0.505706 0.605909 0.719450
0.652226 0.605737 0.719176
0.772837 0.605550 0.718879
0.869444 0.605346 0.718554
-0.012217 0.726698 0.718895
0.106343 0.727880 0.719504
0.210751 0.728507 0.719458
0.346154 0.729000 0.719186
0.497054 0.729536 0.718889
0.644679 0.730120 0.718566
0.768104 0.730758 0.718211
0.867385 0.731459 0.717821
-0.010298 0.821796 0.719467
0.104905 0.822717 0.719195
0.205525 0.823715 0.718900
0.337527 0.824801 0.718577
0.486753 0.825986 0.718223
0.635522 0.827285 0.717834
0.762318 0.828715 0.717404
0.864869 0.830297 0.716926
-0.009372 0.899895 0.718910
0.102860 0.901406 0.718588
0.199401 0.903057 0.718236
0.327275 0.904869 0.717848
0.474294 0.906866 0.717419
0.624196 0.909079 0.716943
0.755082 0.911546 0.716410
0.861723 0.914312 0.715811
-0.033145 0.036819 0.806620
0.100130 0.036819 0.807727
0.211854 0.036819 0.808701
0.356871 0.036819 0.809566
0.514513 0.036819 0.810339
0.662423 0.036819 0.811034
0.780447 0.036819 0.811662
0.873226 0.036819 0.812232
-0.026889 0.148349 0.808671
0.101941 0.150537 0.809539
0.212065 0.152510 0.810315
0.355521 0.154298 0.811012
0.512457 0.155927 0.811642
0.660649 0.157416 0.812214
0.779415 0.158782 0.812736
0.872818 0.160041 0.813214
-0.021924 0.289004 0.810290
0.103406 0.291748 0.810990
0.212238 0.294238 0.811622
0.354412 0.296507 0.812196
0.510751 0.298584 0.812719
0.659161 0.300491 0.813198
0.778542 0.302249 0.813639
0.872357 0.303240 0.813995
-0.017889 0.448143 0.811602
0.104615 0.450637 0.812177
0.212380 0.452913 0.812702
0.353485 0.454999 0.813183
0.509312 0.456917 0.813625
0.657451 0.458213 0.813989
0.776096 0.457295 0.814160
0.870861 0.456299 0.814346
-0.014544 0.601126 0.812686
0.105630 0.602984 0.813168
0.212501 0.604690 0.813610
0.352223 0.606011 0.813984
0.504200 0.605847 0.814154
0.650922 0.605670 0.814339
0.772021 0.605477 0.814540
0.869089 0.605267 0.814760
-0.011726 0.727143 0.813596
0.106348 0.728213 0.813978
0.209836 0.728683 0.814149
0.344651 0.729192 0.814333
0.495271 0.729745 0.814533
0.643107 0.730347 0.814752
0.767115 0.731007 0.814992
0.866955 0.731733 0.815256
-0.010136 0.822125 0.814143
0.104548 0.823073 0.814326
0.204458 0.824102 0.814526
0.335752 0.825223 0.814744
0.484613 0.826448 0.814983
0.633596 0.827793 0.815246
0.761094 0.829276 0.815537
0.864337 0.830920 0.815861
-0.009181 0.900434 0.814519
0.102440 0.901994 0.814737
0.198141 0.903702 0.814975
0.325147 0.905578 0.815237
0.471677 0.907651 0.815527
0.621783 0.909952 0.815849
0.753527 0.912522 0.816210
0.861047 0.915413 0.816615
-0.031858 0.036819 0.884857
0.100500 0.036819 0.885609
0.211897 0.036819 0.886274
0.356598 0.036819 0.886866
0.514098 0.036819 0.887397
0.662067 0.036819 0.887876
0.780241 0.036819 0.888310
0.873145 0.036819 0.888706
-0.025878 0.149179 0.886253
0.102237 0.151283 0.886847
0.212100 0.153186 0.887380
0.355298 0.154913 0.887861
0.512115 0.156488 0.888296
0.660353 0.157930 0.888693
0.779241 0.159256 0.889055
0.872750 0.160478 0.889388
-0.021110 0.290042 0.887363
0.103648 0.292689 0.887846
0.212266 0.295094 0.888283
0.354227 0.297290 0.888680
0.510464 0.299302 0.889044
0.658910 0.301152 0.889377
0.778394 0.302859 0.889684
0.872096 0.302734 0.890083
-0.017218 0.449085 0.888269
0.104817 0.451495 0.888668
0.212404 0.453698 0.889032
0.353329 0.455720 0.889367
0.509068 0.457583 0.889675
0.656316 0.457885 0.890067
0.775389 0.456939 0.890572
0.870554 0.455912 0.891120
-0.013982 0.601826 0.889021
0.105801 0.603627 0.889356
0.212521 0.605281 0.889665
0.350898 0.605952 0.890051
0.502647 0.605784 0.890555
0.649573 0.605601 0.891101
0.771177 0.605402 0.891697
0.868721 0.605184 0.892348
-0.011249 0.727574 0.889655
0.106033 0.728381 0.890035
0.208895 0.728865 0.890537
0.343103 0.729389 0.891083
0.493429 0.729959 0.891676
0.641478 0.730582 0.892325
0.766088 0.731265 0.893037
0.866508 0.732017 0.893821
-0.009970 0.822464 0.890520
0.104181 0.823441 0.891064
0.203358 0.824502 0.891656
0.333917 0.825659 0.892302
0.482394 0.826926 0.893012
0.631590 0.828320 0.893794
0.759816 0.829859 0.894660
0.863782 0.831569 0.895625
-0.008985 0.900990 0.891635
0.102006 0.902602 0.892280
0.196839 0.904369 0.892987
0.322942 0.906314 0.893767
0.468955 0.908466 0.894630
0.619259 0.910861 0.895591
0.751897 0.913542 0.896668
0.860338 0.916565 0.897883
