Resources/LUT_cinematic_1.cube
#Created by: Affinity Photo (Serif Europe Ltd.)
TITLE "Cinematic LUT"
#LUT size
LUT_3D_SIZE 5
#data domain
#LUT data points
DOMAIN_MIN 0.000000 0.000000 0.000000
DOMAIN_MAX 0.903226 0.903226 0.903226
-0.042401 0.036819 0.036819
0.179132 0.036819 0.036819
0.438035 0.036819 0.036819
0.697211 0.036819 0.036819
0.873778 0.036819 0.036819
-0.029020 0.243995 0.036819
0.180494 0.249742 0.036819
0.434266 0.254512 0.036819
0.694002 0.258532 0.036819
0.872961 0.261968 0.036819
-0.020290 0.521155 0.036819
0.181425 0.525740 0.036819
0.431610 0.529626 0.036819
0.691660 0.532963 0.036819
0.871815 0.533785 0.036819
-0.014146 0.750786 0.036819
0.182100 0.752841 0.036819
0.426533 0.754254 0.036819
0.683243 0.755384 0.036819
0.868831 0.756694 0.036819
-0.010240 0.897434 0.036819
0.176647 0.899775 0.036819
0.410262 0.902490 0.036819
0.669387 0.905677 0.036819
0.864678 0.909472 0.036819
-0.039391 0.036819 0.241502
0.179432 0.036819 0.245753
0.437217 0.036819 0.249150
0.696526 0.036819 0.251927
0.873605 0.036819 0.254240
-0.027124 0.246234 0.249048
0.180694 0.251590 0.251843
0.433703 0.256063 0.254169
0.693512 0.259853 0.256135
0.872834 0.263105 0.257819
-0.018988 0.522929 0.254098
0.181567 0.527237 0.256074
0.431199 0.530908 0.257766
0.691291 0.534071 0.259231
0.871324 0.533415 0.256671
-0.013197 0.751576 0.257714
0.182206 0.753522 0.259185
0.423848 0.754650 0.256774
0.681011 0.755841 0.253465
0.868164 0.757228 0.249618
-0.009951 0.898254 0.256876
0.175084 0.900723 0.253583
0.406639 0.903598 0.249756
0.666190 0.906989 0.245253
0.863717 0.911051 0.239881
-0.036653 0.036819 0.506158
0.179708 0.036819 0.510626
0.436458 0.036819 0.514204
0.695885 0.036819 0.517133
0.873442 0.036819 0.519576
-0.025367 0.248316 0.514096
0.180880 0.253321 0.517044
0.433174 0.257523 0.519501
0.693048 0.261101 0.521579
0.872714 0.264184 0.523361
-0.017765 0.524593 0.519426
0.181700 0.528649 0.521515
0.430810 0.532120 0.523306
0.689852 0.534043 0.523864
0.870806 0.533025 0.521675
-0.012297 0.752323 0.523250
0.181364 0.753979 0.523932
0.421017 0.755066 0.521753
0.678636 0.756324 0.519223
0.867452 0.757796 0.516249
-0.009646 0.899117 0.521831
0.173438 0.901725 0.519314
0.402787 0.904774 0.516357
0.662746 0.908391 0.512833
0.862680 0.912750 0.508562
-0.034152 0.036819 0.735459
0.179963 0.036819 0.737995
0.435752 0.036819 0.740035
0.695284 0.036819 0.741711
0.873289 0.036819 0.743114
-0.023732 0.250259 0.739973
0.181054 0.254944 0.741660
0.432677 0.258900 0.743071
0.692609 0.262284 0.744267
0.872600 0.265211 0.745295
-0.016614 0.526157 0.743027
0.181827 0.529983 0.744230
0.430440 0.533271 0.745263
0.688018 0.533686 0.745435
0.870258 0.532612 0.745170
-0.011443 0.753030 0.745231
0.180042 0.754360 0.745444
0.418029 0.755506 0.745180
0.676102 0.756836 0.744873
0.866693 0.758399 0.744510
-0.009325 0.900028 0.745189
0.171700 0.902786 0.744884
0.398686 0.906026 0.744523
0.659027 0.909891 0.744091
0.861557 0.914582 0.743564
-0.031858 0.036819 0.884857
0.180199 0.036819 0.886115
0.435094 0.036819 0.887139
0.694719 0.036819 0.887989
0.873145 0.036819 0.888706
-0.022209 0.252074 0.887108
0.181218 0.256470 0.887963
0.432208 0.260200 0.888683
0.692193 0.263405 0.889299
0.872444 0.265924 0.889848
-0.015529 0.527630 0.888661
0.181947 0.531245 0.889280
0.429980 0.534291 0.889821
0.686078 0.533311 0.890696
0.869679 0.532176 0.891707
-0.010631 0.753702 0.889798
0.178654 0.754761 0.890665
0.414871 0.755970 0.891671
0.673394 0.757379 0.892846
0.865881 0.759043 0.894237
-0.008985 0.900990 0.891635
0.169864 0.903911 0.892804
0.394310 0.907362 0.894187
0.654999 0.911502 0.895849
0.860338 0.916565 0.897883
